X:795
T:Ashleys Hornpipe. JC.114
M:C|
L:1/8
Q:140
S:John Clare,Poet,Helpston. (1793-1864)
R:Hornpipe
O:England
A:Northamptonshire
N:My Repeats. CGP.
Z:P Headford
K:G
GABc dBAG|gagfe2d2|BdBG cecA|BdBG GFED|!
GABc dBAG|gagfe2d2|BdBG cecA|G2F2G4:|!
|:defg fafd|gbge fafd|defg afed|BdBG FAFD|!
BdBG cecA|fafd gbge|dgfe dcBA|G2F2"crot"G4:|]
